astro/static/img/planets/09-neptune.svg

<?xml version="1.0" encoding="UTF-8" standalone="no"?>
<!-- Created with Inkscape (http://www.inkscape.org/) -->
<svg xmlns:dc="http://purl.org/dc/elements/1.1/" xmlns:cc="http://creativecommons.org/ns#" xmlns:rdf="http://www.w3.org/1999/02/22-rdf-syntax-ns#" xmlns:svg="http://www.w3.org/2000/svg" xmlns="http://www.w3.org/2000/svg" xmlns:sodipodi="http://sodipodi.sourceforge.net/DTD/sodipodi-0.dtd" xmlns:inkscape="http://www.inkscape.org/namespaces/inkscape" width="50" height="50" viewBox="0 0 50 50" id="svg34864" sodipodi:version="0.32" inkscape:version="0.46" version="1.0" sodipodi:docbase="C:\Documents and Settings\Owner\Desktop\SVG work\Symbols" sodipodi:docname="Neptune_symbol.svg" inkscape:output_extension="org.inkscape.output.svg.inkscape">
  <defs id="defs34866">
    <inkscape:perspective sodipodi:type="inkscape:persp3d" inkscape:vp_x="0 : 25 : 1" inkscape:vp_y="0 : 1000 : 0" inkscape:vp_z="50 : 25 : 1" inkscape:persp3d-origin="25 : 16.666667 : 1" id="perspective13"/>
  </defs>
  <sodipodi:namedview id="base" pagecolor="#ffffff" bordercolor="#666666" borderopacity="1.0" gridtolerance="10000" guidetolerance="10" objecttolerance="10" inkscape:pageopacity="0.0" inkscape:pageshadow="2" inkscape:zoom="5.6" inkscape:cx="40.112546" inkscape:cy="23.146383" inkscape:document-units="px" inkscape:current-layer="layer1" inkscape:window-width="1024" inkscape:window-height="712" inkscape:window-x="-4" inkscape:window-y="-4" showgrid="false"/>
  <metadata id="metadata34869">
    <rdf:RDF>
      <cc:Work rdf:about="">
        <dc:format>image/svg+xml</dc:format>
        <dc:type rdf:resource="http://purl.org/dc/dcmitype/StillImage"/>
      </cc:Work>
    </rdf:RDF>
  </metadata>
  <g inkscape:label="Layer 1" inkscape:groupmode="layer" id="layer1" transform="translate(-348.7552,-478.0905)">
    <g id="g2396">
      <g id="g2388">
        <path style="opacity:1;color:black;fill:none;fill-opacity:0.75;fill-rule:evenodd;stroke:black;stroke-width:3;stroke-linecap:butt;stroke-linejoin:miter;marker:none;marker-start:none;marker-mid:none;marker-end:none;stroke-miterlimit:4;stroke-dasharray:none;stroke-dashoffset:0;stroke-opacity:1;visibility:visible;display:inline;overflow:visible" d="M 363.87696,487.23598 C 361.22262,505.2704 365.64653,507.97556 374.49435,507.97556 C 383.34217,507.97556 387.76609,505.2704 385.11174,487.23598" id="path6788" sodipodi:nodetypes="czz"/>
        <path style="opacity:1;color:black;fill:none;fill-opacity:0.75;fill-rule:evenodd;stroke:black;stroke-width:3;stroke-linecap:butt;stroke-linejoin:miter;marker:none;marker-start:none;marker-mid:none;marker-end:none;stroke-miterlimit:4;stroke-dasharray:none;stroke-dashoffset:0;stroke-opacity:1;visibility:visible;display:inline;overflow:visible" d="M 374.49435,489.03942 L 374.49435,522.40309" id="path6790"/>
        <path style="opacity:1;color:black;fill:none;fill-opacity:0.75;fill-rule:evenodd;stroke:black;stroke-width:3;stroke-linecap:butt;stroke-linejoin:miter;marker:none;marker-start:none;marker-mid:none;marker-end:none;stroke-miterlimit:4;stroke-dasharray:none;stroke-dashoffset:0;stroke-opacity:1;visibility:visible;display:inline;overflow:visible" d="M 367.41609,515.18933 L 381.57261,515.18933" id="path6792"/>
        <path style="opacity:1;color:black;fill:none;fill-opacity:1;fill-rule:evenodd;stroke:black;stroke-width:3;stroke-linecap:butt;stroke-linejoin:miter;marker:none;marker-start:none;marker-mid:none;marker-end:none;stroke-miterlimit:4;stroke-dasharray:none;stroke-dashoffset:0;stroke-opacity:1;visibility:visible;display:inline;overflow:visible" d="M 358.98361,489.72545 L 364.00408,485.92077 L 367.73728,491.03737" id="path17859"/>
        <path style="opacity:1;color:black;fill:none;fill-opacity:1;fill-rule:evenodd;stroke:black;stroke-width:3;stroke-linecap:butt;stroke-linejoin:miter;marker:none;marker-start:none;marker-mid:none;marker-end:none;stroke-miterlimit:4;stroke-dasharray:none;stroke-dashoffset:0;stroke-opacity:1;visibility:visible;display:inline;overflow:visible" d="M 369.98609,494.03404 L 374.36075,489.47578 L 378.83336,493.93421" id="path17881"/>
        <path style="opacity:1;color:black;fill:none;fill-opacity:1;fill-rule:evenodd;stroke:black;stroke-width:3;stroke-linecap:butt;stroke-linejoin:miter;marker:none;marker-start:none;marker-mid:none;marker-end:none;stroke-miterlimit:4;stroke-dasharray:none;stroke-dashoffset:0;stroke-opacity:1;visibility:visible;display:inline;overflow:visible" d="M 381.18598,491.35241 L 384.98296,486.28478 L 389.95536,490.15447" id="path17883"/>
      </g>
    </g>
  </g>
</svg>

<?xml version="1.0" encoding="UTF-8" standalone="no"?>
<svg xmlns:rdf="http://www.w3.org/1999/02/22-rdf-syntax-ns#" xmlns="http://www.w3.org/2000/svg" version="1.0" xmlns:cc="http://creativecommons.org/ns#" xmlns:dc="http://purl.org/dc/elements/1.1/" viewBox="0 0 100 100">
	<defs></defs>
	<g transform="translate(-348.7552,-428.0905)">
		<g stroke-linejoin="miter" stroke-dashoffset="0" transform="matrix(2.5327792,0,0,2.5327792,-549.69332,-796.84035)" stroke="#000" stroke-linecap="butt" stroke-dasharray="none" stroke-miterlimit="4" stroke-width="3" fill="none">
			<path style="color:#000000;" d="m363.88,487.24c-2.6543,18.034,1.7696,20.74,10.617,20.74,8.8478,0,13.272-2.7052,10.617-20.74"/>
			<path style="color:#000000;" d="m374.49,489.04,0,33.364"/>
			<path style="color:#000000;" d="m367.42,515.19,14.157,0"/>
			<path style="color:#000000;" d="m358.98,489.73,5.0205-3.8047,3.7332,5.1166"/>
			<path style="color:#000000;" d="m369.99,494.03,4.3747-4.5583,4.4726,4.4584"/>
			<path style="color:#000000;" d="m381.19,491.35,3.797-5.0676,4.9724,3.8697"/>
		</g>
	</g>
</svg>
